!!!!SEGMENT: pl-sa--l-1643--094_anonim--salve-puer-dulcissime.krn
!!!cenid: 16xx:1452
!!!COM: Anonim
!!!COM-rismID:
!!!CDT:
!!!CNT:
!!!OTL: Salve puer dulcissime
!!!PDT:
!!!AGN: Sacred
!!!SMS-siglum: PL-SA
!!!SMS-shelfmark: L 1643
!!!SMS-shelfwork: 094 W
!!!SMS-variant:
!!!SMS-altvar:
!!!NIFC-rismSourceID: 1001064683
!!!NIFC-islandoraID:
!!!URL-pdf-islandora:
!!!URL-scan:
!!!ONB-nifc: UWAGA: 8 ksiąg. Primi chori: 1mus Cantus (168-169), C 2dus (170-171), C 3tius (166-167), Bassus (166-167); Secondi chori: Primus Cantus (171-172), C 2dus (172-173), Altus (170-171), Bassus (167-168). UWAGA: Nie dodawać pustych linii, chyba że w rękopisie pojawiają się dodatkowe oznaczenia dotyczące pełnej obsady (a 4, a 8 itp.)
!!!AIN: 8 empty
!!!key:
**kern	**text	**text	**text	**text	**text	**text	**kern	**text	**text	**text	**text	**text	**text	**kern	**text	**text	**text	**text	**text	**text	**kern	**text	**text	**text	**text	**text	**text	**kern	**text	**text	**text	**text	**text	**text	**kern	**text	**text	**text	**text	**text	**text	**kern	**text	**text	**text	**text	**text	**text	**kern	**text	**text	**text	**text	**text	**text
*part8	*part8	*part8	*part8	*part8	*part8	*part8	*part7	*part7	*part7	*part7	*part7	*part7	*part7	*part6	*part6	*part6	*part6	*part6	*part6	*part6	*part5	*part5	*part5	*part5	*part5	*part5	*part5	*part4	*part4	*part4	*part4	*part4	*part4	*part4	*part3	*part3	*part3	*part3	*part3	*part3	*part3	*part2	*part2	*part2	*part2	*part2	*part2	*part2	*part1	*part1	*part1	*part1	*part1	*part1	*part1
*staff8	*staff8	*staff8	*staff8	*staff8	*staff8	*staff8	*staff7	*staff7	*staff7	*staff7	*staff7	*staff7	*staff7	*staff6	*staff6	*staff6	*staff6	*staff6	*staff6	*staff6	*staff5	*staff5	*staff5	*staff5	*staff5	*staff5	*staff5	*staff4	*staff4	*staff4	*staff4	*staff4	*staff4	*staff4	*staff3	*staff3	*staff3	*staff3	*staff3	*staff3	*staff3	*staff2	*staff2	*staff2	*staff2	*staff2	*staff2	*staff2	*staff1	*staff1	*staff1	*staff1	*staff1	*staff1	*staff1
*Iempty	*	*	*	*	*	*	*Iempty	*	*	*	*	*	*	*Iempty	*	*	*	*	*	*	*Iempty	*	*	*	*	*	*	*Iempty	*	*	*	*	*	*	*Iempty	*	*	*	*	*	*	*Iempty	*	*	*	*	*	*	*Iempty	*	*	*	*	*	*
*I"Baſsus 2di Chori	*	*	*	*	*	*	*I"Altus secundi Chori.	*	*	*	*	*	*	*I"Cantus 2dus Secundi Chori.	*	*	*	*	*	*	*I"Primus Cantus 2di Chori	*	*	*	*	*	*	*I"Bassus Primi Chori.	*	*	*	*	*	*	*I"Cantus 3tius Primi Chori	*	*	*	*	*	*	*I"Cantus 2dus Primi Chori.	*	*	*	*	*	*	*I"Im(us) Cantus Primi Chori	*	*	*	*	*	*
*I'Coro 2 B	*	*	*	*	*	*	*I'Coro 2 A	*	*	*	*	*	*	*I'Coro 2 S 2	*	*	*	*	*	*	*I'Coro 2 S 1	*	*	*	*	*	*	*I'Coro 1 B	*	*	*	*	*	*	*I'Coro 1 S 3	*	*	*	*	*	*	*I'Coro 1 S 2	*	*	*	*	*	*	*I'Coro 1 S 1	*	*	*	*	*	*
*clefC3	*	*	*	*	*	*	*clefC2	*	*	*	*	*	*	*clefC1	*	*	*	*	*	*	*clefG2	*	*	*	*	*	*	*clefC3	*	*	*	*	*	*	*clefC2	*	*	*	*	*	*	*clefC1	*	*	*	*	*	*	*clefG2	*	*	*	*	*	*
*k[b-]	*	*	*	*	*	*	*k[b-]	*	*	*	*	*	*	*k[b-]	*	*	*	*	*	*	*k[b-]	*	*	*	*	*	*	*k[b-]	*	*	*	*	*	*	*k[b-]	*	*	*	*	*	*	*k[b-]	*	*	*	*	*	*	*k[b-]	*	*	*	*	*	*
*G:	*	*	*	*	*	*	*G:	*	*	*	*	*	*	*G:	*	*	*	*	*	*	*G:	*	*	*	*	*	*	*G:	*	*	*	*	*	*	*G:	*	*	*	*	*	*	*G:	*	*	*	*	*	*	*G:	*	*	*	*	*	*
*M2/1	*	*	*	*	*	*	*M2/1	*	*	*	*	*	*	*M2/1	*	*	*	*	*	*	*M2/1	*	*	*	*	*	*	*M2/1	*	*	*	*	*	*	*M2/1	*	*	*	*	*	*	*M2/1	*	*	*	*	*	*	*M2/1	*	*	*	*	*	*
=1-	=1-	=1-	=1-	=1-	=1-	=1-	=1-	=1-	=1-	=1-	=1-	=1-	=1-	=1-	=1-	=1-	=1-	=1-	=1-	=1-	=1-	=1-	=1-	=1-	=1-	=1-	=1-	=1-	=1-	=1-	=1-	=1-	=1-	=1-	=1-	=1-	=1-	=1-	=1-	=1-	=1-	=1-	=1-	=1-	=1-	=1-	=1-	=1-	=1-	=1-	=1-	=1-	=1-	=1-	=1-
*	*	*	*	*	*	*	*	*	*	*	*	*	*	*	*	*	*	*	*	*	*	*	*	*	*	*	*	*	*	*	*	*	*	*	*	*	*	*	*	*	*	*	*	*	*	*	*	*	*color:red	*color:red	*color:red	*color:red	*color:red	*color:red	*color:red
!!LO:TX:a:Bi:t=Pro Festo Nativitatis [Iesu (dla głosu Altus secundi Chori.)] Christi:color=red
!	!	!	!	!	!	!	!	!	!	!	!	!	!	!	!	!	!	!	!	!	!	!	!	!	!	!	!	!	!	!	!	!	!	!	!	!	!	!	!	!	!	!	!	!	!	!	!	!	!	!LO:TX:a:t=P:problem=w źródle tylko litera 'S' ma kolor czerwony	!	!	!	!	!
!	!	!	!	!	!	!	!	!	!	!	!	!	!	!	!	!	!	!	!	!	!	!	!	!	!	!	!	!	!	!	!	!	!	!	!	!	!	!	!	!	!	!	!	!	!	!	!	!	!	!	!LO:TX:a:t=P:problem=w źródle tylko litera 'T' ma kolor czerwony	!LO:TX:a:t=P:problem=w źródle tylko litera 'R' ma kolor czerwony	!	!	!
!	!	!	!	!	!	!	!	!	!	!	!	!	!	!	!	!	!	!	!	!	!	!	!	!	!	!	!	!	!	!	!	!	!	!	!	!	!	!	!	!	!	!	!	!	!	!	!	!	!	!	!	!	!LO:TX:a:t=P:problem=w źródle tylko litera 'E' ma kolor czerwony	!LO:TX:a:t=P:problem=w źródle tylko litera 'N' ma kolor czerwony	!
00r	.	.	.	.	.	.	00r	.	.	.	.	.	.	00r	.	.	.	.	.	.	00r	.	.	.	.	.	.	00r	.	.	.	.	.	.	00r	.	.	.	.	.	.	00r	.	.	.	.	.	.	1dd	Sal-	Tu	Re-	Em-	No-	A-
*	*	*	*	*	*	*	*	*	*	*	*	*	*	*	*	*	*	*	*	*	*	*	*	*	*	*	*	*	*	*	*	*	*	*	*	*	*	*	*	*	*	*	*	*	*	*	*	*	*color:auto	*color:auto	*color:auto	*color:auto	*color:auto	*color:auto	*color:auto
.	.	.	.	.	.	.	.	.	.	.	.	.	.	.	.	.	.	.	.	.	.	.	.	.	.	.	.	.	.	.	.	.	.	.	.	.	.	.	.	.	.	.	.	.	.	.	.	.	2cc\	-ve	es-	-gem	-ma-	-bis	-mor
*	*	*	*	*	*	*	*	*	*	*	*	*	*	*	*	*	*	*	*	*	*	*	*	*	*	*	*	*	*	*	*	*	*	*	*	*	*	*	*	*	*	*	*	*	*	*	*	*	*	*	*	*	*	*	*color:red
.	.	.	.	.	.	.	.	.	.	.	.	.	.	.	.	.	.	.	.	.	.	.	.	.	.	.	.	.	.	.	.	.	.	.	.	.	.	.	.	.	.	.	.	.	.	.	.	.	2b-/	pu-	-to	Re-	-nu-	de-	Ie-
=2-	=2-	=2-	=2-	=2-	=2-	=2-	=2-	=2-	=2-	=2-	=2-	=2-	=2-	=2-	=2-	=2-	=2-	=2-	=2-	=2-	=2-	=2-	=2-	=2-	=2-	=2-	=2-	=2-	=2-	=2-	=2-	=2-	=2-	=2-	=2-	=2-	=2-	=2-	=2-	=2-	=2-	=2-	=2-	=2-	=2-	=2-	=2-	=2-	=2-	=2-	=2-	=2-	=2-	=2-	=2-
.	.	.	.	.	.	.	.	.	.	.	.	.	.	.	.	.	.	.	.	.	.	.	.	.	.	.	.	.	.	.	.	.	.	.	.	.	.	.	.	.	.	.	.	.	.	.	.	.	2cc\	-er	nos-	-gum	-el	-tur	-su
*	*	*	*	*	*	*	*	*	*	*	*	*	*	*	*	*	*	*	*	*	*	*	*	*	*	*	*	*	*	*	*	*	*	*	*	*	*	*	*	*	*	*	*	*	*	*	*	*	*	*	*	*	*	*	*color:auto
.	.	.	.	.	.	.	.	.	.	.	.	.	.	.	.	.	.	.	.	.	.	.	.	.	.	.	.	.	.	.	.	.	.	.	.	.	.	.	.	.	.	.	.	.	.	.	.	.	2b-/	dul-	-trum	te	Chris-	te	dul-
.	.	.	.	.	.	.	.	.	.	.	.	.	.	.	.	.	.	.	.	.	.	.	.	.	.	.	.	.	.	.	.	.	.	.	.	.	.	.	.	.	.	.	.	.	.	.	.	.	2.a/	-ciſ-	gau-	pos-	-te	ro-	-ciſ-
.	.	.	.	.	.	.	.	.	.	.	.	.	.	.	.	.	.	.	.	.	.	.	.	.	.	.	.	.	.	.	.	.	.	.	.	.	.	.	.	.	.	.	.	.	.	.	.	.	4a/	-si-	-di-	-ti-	De-	-ga-	-si-
=3-	=3-	=3-	=3-	=3-	=3-	=3-	=3-	=3-	=3-	=3-	=3-	=3-	=3-	=3-	=3-	=3-	=3-	=3-	=3-	=3-	=3-	=3-	=3-	=3-	=3-	=3-	=3-	=3-	=3-	=3-	=3-	=3-	=3-	=3-	=3-	=3-	=3-	=3-	=3-	=3-	=3-	=3-	=3-	=3-	=3-	=3-	=3-	=3-	=3-	=3-	=3-	=3-	=3-	=3-	=3-
!	!	!	!	!	!	!	!	!	!	!	!	!	!	!	!	!	!	!	!	!	!	!	!	!	!	!	!	!	!	!	!	!	!	!	!	!	!	!	!	!	!	!	!	!	!	!	!	!	!LO:TX:t=P:global:problem=kreska oddechu na różnych liniach [rozdzielacz słów / znak oddechu]	!	!	!	!	!	!
1r	.	.	.	.	.	.	1r	.	.	.	.	.	.	1r	.	.	.	.	.	.	1r	.	.	.	.	.	.	1r	.	.	.	.	.	.	1r	.	.	.	.	.	.	1r	.	.	.	.	.	.	1g,<	-me,	-um,	-mus,	-us,	-mus	-me
*	*	*	*	*	*	*	*	*	*	*	*	*	*	*	*	*	*	*	*	*	*	*	*	*	*	*	*	*	*	*	*	*	*	*	*	*	*	*	*	*	*	*	*	*	*	*	*	*	*	*	*ij	*ij	*ij	*ij	*ij
*	*color:red	*color:red	*color:red	*color:red	*color:red	*color:red	*	*color:red	*color:red	*color:red	*color:red	*color:red	*color:red	*	*color:red	*color:red	*color:red	*color:red	*color:red	*color:red	*	*color:red	*color:red	*color:red	*color:red	*color:red	*color:red	*	*color:red	*color:red	*color:red	*color:red	*color:red	*color:red	*	*color:red	*color:red	*color:red	*color:red	*color:red	*color:red	*	*color:red	*color:red	*color:red	*color:red	*color:red	*color:red	*	*	*	*	*	*	*
!!LO:TX:a:t=P:w źródle tylko litera 'N' ma kolor czerwony [dotyczy każdego głosu poza Im(us) Cantus Primi Chori]:problem
!!LO:TX:a:t=P:w źródle tylko litera 'E' ma kolor czerwony [dotyczy każdego głosu poza Im(us) Cantus Primi Chori]:problem
!!LO:TX:a:t=P:w źródle tylko litera 'R' ma kolor czerwony [dotyczy każdego głosu poza Im(us) Cantus Primi Chori]:problem
!!LO:TX:a:t=P:w źródle tylko litera 'T' ma kolor czerwony [dotyczy każdego głosu poza Im(us) Cantus Primi Chori]:problem
!!LO:TX:a:t=P:w źródle tylko litera 'S' ma kolor czerwony [dotyczy każdego głosu poza Im(us) Cantus Primi Chori]:problem
1B-	Sal-	Tu	Re-	Em-	No-	A-	1f	Sal-	Tu	Re-	Em-	No-	A-	1dd	Sal-	Tu	Re-	Em-	No-	A-	1ff	Sal-	Tu	Re-	Em-	No-	A-	1B-	Sal-	Tu	Re-	Em-	No-	A-	1f	Sal-	Tu	Re-	Em-	No-	A-	1b-	Sal-	Tu	Re-	Em-	No-	A-	2.dd\	ſal-	Tu	Re-	Em-	No-	A-
.	.	.	.	.	.	.	.	.	.	.	.	.	.	.	.	.	.	.	.	.	.	.	.	.	.	.	.	.	.	.	.	.	.	.	.	.	.	.	.	.	.	.	.	.	.	.	.	.	4ee\	.	.	.	.	.	.
*	*color:auto	*color:auto	*color:auto	*color:auto	*color:auto	*color:auto	*	*color:auto	*color:auto	*color:auto	*color:auto	*color:auto	*color:auto	*	*color:auto	*color:auto	*color:auto	*color:auto	*color:auto	*color:auto	*	*color:auto	*color:auto	*color:auto	*color:auto	*color:auto	*color:auto	*	*color:auto	*color:auto	*color:auto	*color:auto	*color:auto	*color:auto	*	*color:auto	*color:auto	*color:auto	*color:auto	*color:auto	*color:auto	*	*color:auto	*color:auto	*color:auto	*color:auto	*color:auto	*color:auto	*	*	*	*	*	*	*
=4-	=4-	=4-	=4-	=4-	=4-	=4-	=4-	=4-	=4-	=4-	=4-	=4-	=4-	=4-	=4-	=4-	=4-	=4-	=4-	=4-	=4-	=4-	=4-	=4-	=4-	=4-	=4-	=4-	=4-	=4-	=4-	=4-	=4-	=4-	=4-	=4-	=4-	=4-	=4-	=4-	=4-	=4-	=4-	=4-	=4-	=4-	=4-	=4-	=4-	=4-	=4-	=4-	=4-	=4-	=4-
!	!	!	!	!	!	!	!	!	!	!	!	!	!	!	!	!	!	!	!	!	!	!	!	!	!	!	!	!	!	!	!	!	!	!	!LO:TX:t=P:global:problem=kreska oddechu na różnych liniach [rozdzielacz słów / znak oddechu]	!	!	!	!	!	!	!	!	!	!	!	!	!	!	!	!	!	!	!	!
2B-/	-ve	es-	-gem	-ma-	-bis	-mor	2d/	-ve	es-	-gem	-ma-	-bis	-mor	2b-\	-ve	es-	-gem	-ma-	-bis	-mor	2dd\	-ve	es-	-gem	-ma-	-bis	-mor	2B-/	-ve	es-	-gem	-ma-	-bis	-mor	2f,<\	-ve	es-	-gem	-ma-	-bis	-mor	2b-\	-ve	es-	-gem	-ma-	-bis	-mor	2ff\	-ve	-es-	gem	-ma-	-bis	-mor
*	*	*	*	*	*	*	*	*	*	*	*	*	*color:red	*	*	*	*	*	*	*color:red	*	*	*	*	*	*	*color:red	*	*	*	*	*	*	*color:red	*	*	*	*	*	*	*color:red	*	*	*	*	*	*	*color:red	*	*	*	*	*	*	*
2B-/	pu-	-to	Re-	-nu-	de-	Ie-	2d/	pu-	-to	Re-	-nu-	de-	Ie-	2b-\	pu-	-to	Re-	-nu-	de-	Ie-	2ff\	pu-	-to	Re-	-nu-	de-	Ie-	2B-/	pu-	-to	Re-	-nu-	de-	Ie-	2f\	pu-	-to	Re-	-nu-	de-	Ie-	2b-\	pu-	-to	Re-	-nu-	de-	Ie-	2dd\	pu-	-to	Re-	-nu-	de-	Ie-
2f\	-er	nos-	-gum	-el	-tur	-su	2f\	-er	nos-	-gum	-el	-tur	-su	2cc\	-er	nos-	-gum	-el	-tur	-su	2ff\	-er	nos-	-gum	-el	-tur	-su	2F/	-er	nos-	-gum	-el	-tur	-su	2f\	-er	nos-	-gum	-el	-tur	-su	2cc\	-er	nos-	-gum	-el	-tur	-su	2cc\	-er	nos-	-gum	-el	-tur	-su
*	*	*	*	*	*	*	*	*	*	*	*	*	*color:auto	*	*	*	*	*	*	*color:auto	*	*	*	*	*	*	*color:auto	*	*	*	*	*	*	*color:auto	*	*	*	*	*	*	*color:auto	*	*	*	*	*	*	*color:auto	*	*	*	*	*	*	*
2B-/	dul-	-trum	te	Chris-	te	dul-	2f\	dul-	-trum	te	Chris-	te	dul-	2dd\	dul-	-trum	te	Chris-	te	dul-	2dd\	dul-	-trum	te	Chris-	te	dul-	2B-/	dul-	-trum	te	Chris-	te	dul-	2f\	dul-	-trum	te	Chris-	te	dul-	2f/	dul-	-trum	te	Chris-	te	dul-	2b-/	dul-	-trum	te	Chris-	te	dul-
=5-	=5-	=5-	=5-	=5-	=5-	=5-	=5-	=5-	=5-	=5-	=5-	=5-	=5-	=5-	=5-	=5-	=5-	=5-	=5-	=5-	=5-	=5-	=5-	=5-	=5-	=5-	=5-	=5-	=5-	=5-	=5-	=5-	=5-	=5-	=5-	=5-	=5-	=5-	=5-	=5-	=5-	=5-	=5-	=5-	=5-	=5-	=5-	=5-	=5-	=5-	=5-	=5-	=5-	=5-	=5-
2.f\	-ciſ-	gau-	pos-	-te	ro-	-ciſ-	2.f\	-ciſ-	gau-	pos-	-te	ro-	-ciſ-	2.a\	-ciſ-	gau-	pos-	-te	ro-	-ciſ-	2.cc\	-ciſ-	gau-	pos-	-te	ro-	-ciſ-	2.F/	-ciſ-	gau-	pos-	-te	ro-	-ciſ-	2.f\	-ciſ-	gau-	pos-	-te	ro-	-ciſ-	2.a\	-ciſ-	gau-	pos-	-te	ro-	-ciſ-	2.cc\	-cis-	gau-	pos-	-te	ro-	-cis-
4f\	-si-	-di-	-ti-	De-	-ga-	-si-	4f\	-si-	-di-	-ti-	De-	-ga-	-si-	4a\	-si-	-di-	-ti-	De-	-ga-	-si-	4cc\	-si-	-di-	-ti-	De-	-ga-	-si-	4F/	-si-	-di-	-ti-	De-	-ga-	-si-	4f\	-si-	-di-	-ti-	De-	-ga-	-si-	4a\	-si-	-di-	-ti-	De-	-ga-	-si-	4cc\	-si-	-di-	-ti-	De-	-ga-	-si-
1B-	-me,	-um,	-mus,	-us,	-mus	-me	1d	-me,	-um,	-mus,	-us,	-mus	-me	1b-	-me,	-um,	-mus,	-us,	-mus	-me	1b-	-me,	-um,	-mus,	-us,	-mus	-me	1B-	-me,	-um,	-mus,	-us,	-mus	-me	1f	-me,	-um,	-mur	-us	-mus	-me	1f	-me,	-um,	-mus,	-us,	-mus	-me	1dd,<	-me	-um	-mus	-us	-mus	-me
*	*	*	*	*	*	*	*	*	*	*	*	*	*	*	*	*	*	*	*	*	*	*	*	*	*	*	*	*	*	*	*	*	*	*	*	*	*	*	*	*	*	*	*	*	*	*	*	*	*	*	*Xij	*Xij	*Xij	*Xij	*Xij
=6-	=6-	=6-	=6-	=6-	=6-	=6-	=6-	=6-	=6-	=6-	=6-	=6-	=6-	=6-	=6-	=6-	=6-	=6-	=6-	=6-	=6-	=6-	=6-	=6-	=6-	=6-	=6-	=6-	=6-	=6-	=6-	=6-	=6-	=6-	=6-	=6-	=6-	=6-	=6-	=6-	=6-	=6-	=6-	=6-	=6-	=6-	=6-	=6-	=6-	=6-	=6-	=6-	=6-	=6-	=6-
*	*	*	*	*	*	*	*	*	*	*	*	*	*	*	*	*	*	*	*	*	*	*	*	*	*	*	*	*	*	*	*	*	*	*	*	*	*	*	*	*	*	*	*	*	*	*	*	*	*	*	*	*	*	*	*color:red
00r	.	.	.	.	.	.	00r	.	.	.	.	.	.	00r	.	.	.	.	.	.	00r	.	.	.	.	.	.	00r	.	.	.	.	.	.	00r	.	.	.	.	.	.	00r	.	.	.	.	.	.	1ff	Dul-	Men-	Sic	Par-	Ut	Ie-
*	*	*	*	*	*	*	*	*	*	*	*	*	*	*	*	*	*	*	*	*	*	*	*	*	*	*	*	*	*	*	*	*	*	*	*	*	*	*	*	*	*	*	*	*	*	*	*	*	*	*	*	*color:red	*	*	*
.	.	.	.	.	.	.	.	.	.	.	.	.	.	.	.	.	.	.	.	.	.	.	.	.	.	.	.	.	.	.	.	.	.	.	.	.	.	.	.	.	.	.	.	.	.	.	.	.	2ff\	-ce-	-tis	Ie-	-ve	su-	-su
*	*	*	*	*	*	*	*	*	*	*	*	*	*	*	*	*	*	*	*	*	*	*	*	*	*	*	*	*	*	*	*	*	*	*	*	*	*	*	*	*	*	*	*	*	*	*	*	*	*	*	*	*	*	*	*color:auto
.	.	.	.	.	.	.	.	.	.	.	.	.	.	.	.	.	.	.	.	.	.	.	.	.	.	.	.	.	.	.	.	.	.	.	.	.	.	.	.	.	.	.	.	.	.	.	.	.	2dd\	-do	nos-	-sus	ho-	-per	Rex
*	*	*	*	*	*	*	*	*	*	*	*	*	*	*	*	*	*	*	*	*	*	*	*	*	*	*	*	*	*	*	*	*	*	*	*	*	*	*	*	*	*	*	*	*	*	*	*	*	*	*	*	*color:auto	*	*	*
=7-	=7-	=7-	=7-	=7-	=7-	=7-	=7-	=7-	=7-	=7-	=7-	=7-	=7-	=7-	=7-	=7-	=7-	=7-	=7-	=7-	=7-	=7-	=7-	=7-	=7-	=7-	=7-	=7-	=7-	=7-	=7-	=7-	=7-	=7-	=7-	=7-	=7-	=7-	=7-	=7-	=7-	=7-	=7-	=7-	=7-	=7-	=7-	=7-	=7-	=7-	=7-	=7-	=7-	=7-	=7-
.	.	.	.	.	.	.	.	.	.	.	.	.	.	.	.	.	.	.	.	.	.	.	.	.	.	.	.	.	.	.	.	.	.	.	.	.	.	.	.	.	.	.	.	.	.	.	.	.	2ee-X\	no-	-trae	nos-	-mo	cun-	a-
.	.	.	.	.	.	.	.	.	.	.	.	.	.	.	.	.	.	.	.	.	.	.	.	.	.	.	.	.	.	.	.	.	.	.	.	.	.	.	.	.	.	.	.	.	.	.	.	.	2dd\	-stra	ſo-	-tris	mag-	-cta	-man-
.	.	.	.	.	.	.	.	.	.	.	.	.	.	.	.	.	.	.	.	.	.	.	.	.	.	.	.	.	.	.	.	.	.	.	.	.	.	.	.	.	.	.	.	.	.	.	.	.	2.cc\	a-	-la-	men-	-ne	ſci-	-tiſ-
.	.	.	.	.	.	.	.	.	.	.	.	.	.	.	.	.	.	.	.	.	.	.	.	.	.	.	.	.	.	.	.	.	.	.	.	.	.	.	.	.	.	.	.	.	.	.	.	.	4cc\	-ni-	-ti-	-ti-	De-	-a-	-si-
!	!	!	!	!	!	!	!	!	!	!	!	!	!	!	!	!	!	!	!	!	!	!	!	!	!	!	!	!	!	!	!	!	!	!	!	!	!	!	!	!	!	!	!	!	!	!	!	!	!LO:PB:g=original	!	!	!	!	!	!
=8-	=8-	=8-	=8-	=8-	=8-	=8-	=8-	=8-	=8-	=8-	=8-	=8-	=8-	=8-	=8-	=8-	=8-	=8-	=8-	=8-	=8-	=8-	=8-	=8-	=8-	=8-	=8-	=8-	=8-	=8-	=8-	=8-	=8-	=8-	=8-	=8-	=8-	=8-	=8-	=8-	=8-	=8-	=8-	=8-	=8-	=8-	=8-	=8-	=8-	=8-	=8-	=8-	=8-	=8-	=8-
1r	.	.	.	.	.	.	1r	.	.	.	.	.	.	1r	.	.	.	.	.	.	1r	.	.	.	.	.	.	1r	.	.	.	.	.	.	1r	.	.	.	.	.	.	1r	.	.	.	.	.	.	1b-,<	-ma,	-um,	-bus,	-us	-mus	-me.
*	*	*	*	*	*	*	*	*	*	*	*	*	*	*	*	*	*	*	*	*	*	*	*	*	*	*	*	*	*	*	*	*	*	*	*	*	*	*	*	*	*	*	*	*	*	*	*	*	*	*	*ij	*ij	*ij	*ij	*ij
*	*	*	*	*	*	*	*	*	*	*	*	*	*color:red	*	*	*	*	*	*	*color:red	*	*	*	*	*	*	*color:red	*	*	*	*	*	*	*color:red	*	*	*	*	*	*	*color:red	*	*	*	*	*	*	*color:red	*	*	*	*	*	*	*
1B-	Dul-	Men-	Sic	Par-	Ut	Ie-	1d	Dul-	Men-	Sic	Par-	Ut	Ie-	1b-	Dul-	Men-	Sic	Par-	Ut	Ie-	1ff	Dul-	Men-	Sic	Par-	Ut	Ie-	1B-	Dul-	Men-	Sic	Par-	Ut	Ie-	1f	Dul-	Men-	Sic	Par-	Ut	Ie-	1dd	Dul-	Men-	Sic	Par-	Ut	Ie-	1dd	Dul-	Men-	Sic	Par-	Ut	Ie-
=9-	=9-	=9-	=9-	=9-	=9-	=9-	=9-	=9-	=9-	=9-	=9-	=9-	=9-	=9-	=9-	=9-	=9-	=9-	=9-	=9-	=9-	=9-	=9-	=9-	=9-	=9-	=9-	=9-	=9-	=9-	=9-	=9-	=9-	=9-	=9-	=9-	=9-	=9-	=9-	=9-	=9-	=9-	=9-	=9-	=9-	=9-	=9-	=9-	=9-	=9-	=9-	=9-	=9-	=9-	=9-
*	*	*	*color:red	*	*	*	*	*	*	*color:red	*	*	*	*	*	*	*color:red	*	*	*	*	*	*	*	*	*	*	*	*	*	*color:red	*	*	*	*	*	*	*color:red	*	*	*	*	*	*	*color:red	*	*	*	*	*	*	*	*	*	*
2B-/	-ce-	-tis	Ie-	-ve	su-	-su	2f\	-ce-	-tis	Ie-	-ve	su-	-su	2b-\	-ce-	-tis	Ie-	-ve	su-	-su	2dd\	-ce-	-tis	Ie-	-ve	su-	-su	2B-/	-ce-	-tis	Ie-	-ve	su-	-su	2f\	-ce-	-tis	Ie-	-ue	ſu-	-su	2b-\	-ce-	-tis	Ie-	-ve	su-	-su	2dd\	-ce-	-tis	Ie-	-ve	su-	-su
*	*	*	*	*	*	*	*	*	*	*	*	*	*color:auto	*	*	*	*	*	*	*color:auto	*	*	*	*	*	*	*color:auto	*	*	*	*	*	*	*color:auto	*	*	*	*	*	*	*color:auto	*	*	*	*	*	*	*color:auto	*	*	*	*	*	*	*
2f\	-do	nos-	-sus	ho-	-per	Rex	2c/	-do	nos-	-sus	ho-	-per	Rex	2a\	-do	nos-	-sus	ho-	-per	Rex	2cc\	-do	nos-	-sus	ho-	-per	Rex	2F/	-do	nos-	-sus	ho-	-per	Rex	2f\	-do	nos-	-sus	ho-	-per	Rex	2cc\	-do	nos-	-sus	ho-	-per	Rex	2dd\	-do	nos-	-sus	ho-	-per	Rex
*	*	*	*color:auto	*	*	*	*	*	*	*color:auto	*	*	*	*	*	*	*color:auto	*	*	*	*	*	*	*	*	*	*	*	*	*	*color:auto	*	*	*	*	*	*	*color:auto	*	*	*	*	*	*	*color:auto	*	*	*	*	*	*	*	*	*	*
2c\	no-	-trae	nos-	-mo	cun-	a-	2g\	no-	-trae	nos-	-mo	cun-	a-	2g/	no-	-trae	nos-	-mo	cun-	a-	2cc\	no-	-trae	nos-	-mo	cun-	a-	2c/	no-	-trae	nos-	-mo	cun-	a-	2g\	no-	-tra(e)	nos-	-mo	cun-	a-	2cc\	no-	-trae	nos-	-mo	cun-	a-	2ee-X\	nos-	-trae	nos-	-mo	cun-	a-
2g\	-stra	ſo-	-tris	mag-	-cta	-man-	2g\	-stra	ſo-	-tris	mag-	-cta	-man-	2b-\	-stra	ſo-	-tris	mag-	-cta	-man-	2dd\	-stra	ſo-	-tris	mag-	-cta	-man-	2G/	-stra	ſo-	-tris	mag-	-cta	-man-	2g\	-stra	ſo-	-tris	ma-	-cta	-man-	2b-\	-stra	ſo-	-tris	mag-	-cta	-man-	2dd\	-tra	so-	-tris	mag-	-cta	-man-
=10-	=10-	=10-	=10-	=10-	=10-	=10-	=10-	=10-	=10-	=10-	=10-	=10-	=10-	=10-	=10-	=10-	=10-	=10-	=10-	=10-	=10-	=10-	=10-	=10-	=10-	=10-	=10-	=10-	=10-	=10-	=10-	=10-	=10-	=10-	=10-	=10-	=10-	=10-	=10-	=10-	=10-	=10-	=10-	=10-	=10-	=10-	=10-	=10-	=10-	=10-	=10-	=10-	=10-	=10-	=10-
2.c\	a-	-la-	men-	-ne	ſci-	-tiſ-	2.g\	a-	-la-	men-	-ne	ſci-	-tiſ-	2.g/	a-	-la-	men-	-ne	ſci-	-tiſ-	2.ee-X\	a-	-la-	men-	-ne	ſci-	-tiſ-	2.c/	a-	-la-	men-	-ne	ſci-	-tiſ-	2.g\	a-	-la-	men-	-ge	ſci-	-tiſ-	2.cc\	a-	-la-	men-	-ne	ſci-	-tiſ-	2.ff\	a-	-la-	men-	-ne	sci-	-tis-
4c\	-ni-	-ti-	-ti-	De-	-a-	-si-	4g\	-ni-	-ti-	-ti-	De-	-a-	-si-	4cc\	-ni-	-ti-	-ti-	De-	-a-	-si-	4ee-\	-ni-	-ti-	-ti-	De-	-a-	-si-	4c/	-ni-	-ti-	-ti-	De-	-a-	-si-	4g\	-ni-	-ti-	-ti-	De-	-a-	-si-	4cc\	-ni-	-ti-	-ti-	De-	-a-	-si-	4ff\	-ni-	-ti-	-ti-	De-	-a-	-si-
!	!	!	!	!	!	!	!	!	!	!	!	!	!	!	!	!	!	!	!	!	!LO:TX:t=P:problem=podwójna kreska pseudotaktowa	!	!	!	!	!	!	!	!	!	!	!	!	!	!LO:TX:t=P:problem=podwójna kreska pseudotaktowa	!	!	!	!	!	!	!	!	!	!	!	!	!	!	!	!	!	!	!	!
!	!	!	!	!	!	!	!	!	!	!	!	!	!	!	!	!	!	!	!	!	!	!	!	!	!	!	!	!	!	!	!	!	!	!	!	!	!	!	!	!	!	!LO:TX:a:t=P:problem=w źródle krzyżyk w roli kasownika	!	!	!	!	!	!	!	!	!	!	!	!	!
!	!	!	!	!	!	!	!	!	!	!	!	!	!	!	!	!	!	!	!	!	!	!	!	!	!	!	!	!	!	!	!	!	!	!	!	!	!	!	!	!	!	!LO:TX:t=P:problem=# below	!	!	!	!	!	!	!	!	!	!	!	!	!
!	!	!	!	!	!	!	!	!	!	!	!	!	!	!	!	!	!	!	!	!	!	!	!	!	!	!	!	!	!	!	!	!	!	!	!	!	!	!	!	!	!	!LO:N:acc=#	!	!	!	!	!	!	!	!	!	!	!	!	!
1g	-ma,	-um,	-bus,	-us	-mus	-me.	1d	-ma,	-um,	-bus,	-us	-mus	-me.	1g	-ma,	-um,	-bus,	-us	-mus	-me.	1dd	-ma,	-um,	-bus,	-us	-mus	-me.	1G	-ma,	-um,	-bus,	-us	-mus	-me.	1g	-ma,	-um,	-bus,	-us	-mus	-me.	1bn	-ma,	-um,	-bus,	-us	-mus	-me.	1ff,<	-ma,	-um	-bus	-us	-mus	-me
*	*	*	*	*	*	*	*	*	*	*	*	*	*	*	*	*	*	*	*	*	*	*	*	*	*	*	*	*	*	*	*	*	*	*	*	*	*	*	*	*	*	*	*	*	*	*	*	*	*	*	*Xij	*Xij	*Xij	*Xij	*Xij
!LO:PB:g=original	!	!	!	!	!	!	!LO:PB:g=original	!	!	!	!	!	!	!LO:PB:g=original	!	!	!	!	!	!	!LO:PB:g=original	!	!	!	!	!	!	!LO:PB:g=original	!	!	!	!	!	!	!LO:PB:g=original	!	!	!	!	!	!	!LO:PB:g=original	!	!	!	!	!	!	!	!	!	!	!	!	!
=11-	=11-	=11-	=11-	=11-	=11-	=11-	=11-	=11-	=11-	=11-	=11-	=11-	=11-	=11-	=11-	=11-	=11-	=11-	=11-	=11-	=11||	=11||	=11||	=11||	=11||	=11||	=11||	=11-	=11-	=11-	=11-	=11-	=11-	=11-	=11||	=11||	=11||	=11||	=11||	=11||	=11||	=11-	=11-	=11-	=11-	=11-	=11-	=11-	=11-	=11-	=11-	=11-	=11-	=11-	=11-
1B-	No-	E-	Ut	Mun-	Quod	Te	1f	No-	E-	Ut	Mun-	Quod	Te	1dd	No-	E-	Ut	Mun-	Quod	Te	1ff	No-	E-	Ut	Mun-	Quod	Te	1B-	No-	E-	Ut	Mun-	Quod	Te	1f	No-	E-	Ut	Mun-	Quod	Te	1b-y	No-	E-	Ut	Mun-	Quod	Te	1dd	No-	E-	Ut	Mun-	Quod	Te
2B-/	-bis	-ter-	te	-di	cun-	pos-	2d/	-bis	-ter-	te	-di	cun-	pos-	2b-\	-bis	-ter-	te	-di	cun-	pos-	2ff\	-bis	-ter-	te	-di	cun-	pos-	2B-/	-bis	-ter-	te	-di	cun-	pos-	2f\	-bis	-ter-	te	-di	cun-	pos-	2b-\	-bis	-ter-	te	-di	cun-	pos-	2dd\	-bis	-ter-	.	-di	cun-	pos-
2B-/	tu-	-na	-lau-	to-	-q(ue)	-ti-	2f\	tu-	-na	-lau-	to-	-q(ue)	-ti-	2b-\	tu-	-na	-lau-	to-	-q(ue)	-ti-	2ff\	tu-	-na	-lau-	to-	-q(ue)	-ti-	2B-/	tu-	-na	-lau-	to-	-q(ue)	-ti-	2f\	tu-	-na	-lau-	to-	-q(ue)	-ti-	2b-\	tu-	-na	-lau-	to-	-q(ue)	-ti-	2dd\	tu-	-na	-lau-	to-	-q(ue)	-ti-
=12-	=12-	=12-	=12-	=12-	=12-	=12-	=12-	=12-	=12-	=12-	=12-	=12-	=12-	=12-	=12-	=12-	=12-	=12-	=12-	=12-	=12-	=12-	=12-	=12-	=12-	=12-	=12-	=12-	=12-	=12-	=12-	=12-	=12-	=12-	=12-	=12-	=12-	=12-	=12-	=12-	=12-	=12-	=12-	=12-	=12-	=12-	=12-	=12-	=12-	=12-	=12-	=12-	=12-	=12-	=12-
2f\	-a	ſa-	-de-	-ti-	bis	-mur	2c/	-a	ſa-	-de-	-ti-	bis	-mur	2cc\	-a	ſa-	-de-	-ti-	bis	-mur	2ff\	-a	ſa-	-de-	-ti-	bis	-mur	2F/	-a	ſa-	-de-	-ti-	bis	-mur	2f\	-a	ſa-	-de-	-ti-	bis	-mur	2a\	-a	ſa-	-de-	-ti-	bis	-mur	2ff\	-a	ſa-	-de-	-ti-	bis	-mur
2f\	prae-	-pi-	-mur	-us	fa-	pi-	2f\	prae-	-pi-	-mur	-us	fa-	pi-	2dd\	prae-	-pi-	-mur	-us	fa-	pi-	2ff\	prae-	-pi-	-mur	-us	fa-	pi-	2B-/	prae-	-pi-	-mur	-us	fa-	pi-	2f\	prae-	-pi-	-mur	-us	fa-	pi-	2b-\	prae-	-pi-	-mur	-us	fa-	pi-	2dd\	prae-	-pi-	-mur	-us	fa-	pi-
2.g\	-sen-	-en-	a-	cre-	-ci-	-iſ-	2.d/	-sen-	-en-	a-	cre-	-ci-	-iſ-	2.dd\	-sen-	-en-	a-	cre-	-ci-	-iſ-	2.dd\	-sen-	-en-	a-	cre-	-ci-	-iſ-	4G/	-sen-	-en-	a-	cre-	-ci-	-iſ-	2.g\	-sen-	-en-	a-	cre-	-ci-	-iſ-	2.b-\	-sen-	-en-	a-	cre-	-ci-	-iſ-	2.gg\	-sen-	-en-	a-	cre-	-ci-	-iſ-
.	.	.	.	.	.	.	.	.	.	.	.	.	.	.	.	.	.	.	.	.	.	.	.	.	.	.	.	4A/	.	.	.	.	.	.	.	.	.	.	.	.	.	.	.	.	.	.	.	.	.	.	.	.	.	.	.
.	.	.	.	.	.	.	.	.	.	.	.	.	.	.	.	.	.	.	.	.	.	.	.	.	.	.	.	4B-/	.	.	.	.	.	.	.	.	.	.	.	.	.	.	.	.	.	.	.	.	.	.	.	.	.	.	.
4g\	-ti-	-ti-	-me-	-a-	-a-	-si-	4d/	-ti-	-ti-	-me-	-a-	-a-	-si-	4dd\	-ti-	-ti-	-me-	-a-	-a-	-si-	4dd\	-ti-	-ti-	-me-	-a-	-a-	-si-	4c/	-ti-	-ti-	-me-	-a-	-a-	-si-	4g\	-ti-	-ti-	-me-	-a-	-a-	-si-	4b-\	-ti-	-ti-	-me-	-a-	-a-	-si-	4gg\	-ti-	-ti-	-me-	-a-	-a-	-si-
=13-	=13-	=13-	=13-	=13-	=13-	=13-	=13-	=13-	=13-	=13-	=13-	=13-	=13-	=13-	=13-	=13-	=13-	=13-	=13-	=13-	=13-	=13-	=13-	=13-	=13-	=13-	=13-	=13-	=13-	=13-	=13-	=13-	=13-	=13-	=13-	=13-	=13-	=13-	=13-	=13-	=13-	=13-	=13-	=13-	=13-	=13-	=13-	=13-	=13-	=13-	=13-	=13-	=13-	=13-	=13-
1d	-a,	-a	-mur,	-tor	-mus	-me	1d	-a,	-a	-mur,	-tor	-mus	-me	1a	-a,	-a	-mur,	-tor	-mus	-me	1dd	-a,	-a	-mur,	-tor	-mus	-me	1d	-a,	-a	-mur,	-tor	-mus	-me	1a	-a,	-a	-mur,	-tor	-mus	-me	1a	-a,	-a	-mur,	-tor	-mus	-me	1ff#X	-a,	-a	-mur,	-tor	-mus	-me
1r	.	.	.	.	.	.	1r	.	.	.	.	.	.	1r	.	.	.	.	.	.	1r	.	.	.	.	.	.	1r	.	.	.	.	.	.	1r	.	.	.	.	.	.	1r	.	.	.	.	.	.	1gg	Den-	Im-	Tu-	Es-	Nil	Sic
=14-	=14-	=14-	=14-	=14-	=14-	=14-	=14-	=14-	=14-	=14-	=14-	=14-	=14-	=14-	=14-	=14-	=14-	=14-	=14-	=14-	=14-	=14-	=14-	=14-	=14-	=14-	=14-	=14-	=14-	=14-	=14-	=14-	=14-	=14-	=14-	=14-	=14-	=14-	=14-	=14-	=14-	=14-	=14-	=14-	=14-	=14-	=14-	=14-	=14-	=14-	=14-	=14-	=14-	=14-	=14-
*	*	*	*	*	*	*	*	*	*	*	*	*	*	*	*	*	*	*	*	*	*	*	*	*	*	*	*	*	*	*	*	*	*	*	*	*	*	*	*	*	*	*	*	*	*	*	*	*	*	*	*	*	*	*	*color:red
00r	.	.	.	.	.	.	00r	.	.	.	.	.	.	00r	.	.	.	.	.	.	00r	.	.	.	.	.	.	00r	.	.	.	.	.	.	00r	.	.	.	.	.	.	00r	.	.	.	.	.	.	2ff\	-tur	-ple	-am	-to	a-	Ie-
.	.	.	.	.	.	.	.	.	.	.	.	.	.	.	.	.	.	.	.	.	.	.	.	.	.	.	.	.	.	.	.	.	.	.	.	.	.	.	.	.	.	.	.	.	.	.	.	.	2dd\	do-	nos	glo-	no-	-li-	-s(us)
*	*	*	*	*	*	*	*	*	*	*	*	*	*	*	*	*	*	*	*	*	*	*	*	*	*	*	*	*	*	*	*	*	*	*	*	*	*	*	*	*	*	*	*	*	*	*	*	*	*	*	*	*	*	*	*color:auto
.	.	.	.	.	.	.	.	.	.	.	.	.	.	.	.	.	.	.	.	.	.	.	.	.	.	.	.	.	.	.	.	.	.	.	.	.	.	.	.	.	.	.	.	.	.	.	.	.	2ee-X\	-na	tu-	-ri-	-bis	-ud	nos-
.	.	.	.	.	.	.	.	.	.	.	.	.	.	.	.	.	.	.	.	.	.	.	.	.	.	.	.	.	.	.	.	.	.	.	.	.	.	.	.	.	.	.	.	.	.	.	.	.	2dd\	cae-	-a	-am	con-	pos-	-tra
=15-	=15-	=15-	=15-	=15-	=15-	=15-	=15-	=15-	=15-	=15-	=15-	=15-	=15-	=15-	=15-	=15-	=15-	=15-	=15-	=15-	=15-	=15-	=15-	=15-	=15-	=15-	=15-	=15-	=15-	=15-	=15-	=15-	=15-	=15-	=15-	=15-	=15-	=15-	=15-	=15-	=15-	=15-	=15-	=15-	=15-	=15-	=15-	=15-	=15-	=15-	=15-	=15-	=15-	=15-	=15-
.	.	.	.	.	.	.	.	.	.	.	.	.	.	.	.	.	.	.	.	.	.	.	.	.	.	.	.	.	.	.	.	.	.	.	.	.	.	.	.	.	.	.	.	.	.	.	.	.	2.cc\	-les-	gra-	ſo-	-so-	-tu-	a-
.	.	.	.	.	.	.	.	.	.	.	.	.	.	.	.	.	.	.	.	.	.	.	.	.	.	.	.	.	.	.	.	.	.	.	.	.	.	.	.	.	.	.	.	.	.	.	.	.	4cc\	-ti-	-ti-	-ne-	-la-	-la-	-ni-
.	.	.	.	.	.	.	.	.	.	.	.	.	.	.	.	.	.	.	.	.	.	.	.	.	.	.	.	.	.	.	.	.	.	.	.	.	.	.	.	.	.	.	.	.	.	.	.	.	1dd,<	-a	-a	-mur.	-tor.	-mur,	-ma
=16-	=16-	=16-	=16-	=16-	=16-	=16-	=16-	=16-	=16-	=16-	=16-	=16-	=16-	=16-	=16-	=16-	=16-	=16-	=16-	=16-	=16-	=16-	=16-	=16-	=16-	=16-	=16-	=16-	=16-	=16-	=16-	=16-	=16-	=16-	=16-	=16-	=16-	=16-	=16-	=16-	=16-	=16-	=16-	=16-	=16-	=16-	=16-	=16-	=16-	=16-	=16-	=16-	=16-	=16-	=16-
*	*	*	*	*	*	*	*	*	*	*	*	*	*	*	*	*	*	*	*	*	*	*	*	*	*	*	*	*	*	*	*	*	*	*	*	*	*	*	*	*	*	*	*	*	*	*	*	*	*	*	*ij	*ij	*ij	*ij	*ij
1B-	Den-	Im-	Tu-	Es-	Nil	Sic	1d	Den-	Im-	Tu-	Es-	Nil	Sic	1dd	Den-	Im-	Tu-	Es-	Nil	Sic	1.dd	Den-	Im-	Tu-	Es-	Nil	Sic	1B-	Den-	Im-	Tu-	Es-	Nil	Sic	1.f	Den-	Im-	Tu-	Es-	Nil	Sic	1b-	Den-	Im-	Tu-	Es-	Nil	Sic	1ff	Den-	Im-	Tu-	Es-	Nil	Sic
*	*	*	*	*	*	*color:red	*	*	*	*	*	*	*color:red	*	*	*	*	*	*	*color:red	*	*	*	*	*	*	*	*	*	*	*	*	*	*color:red	*	*	*	*	*	*	*	*	*	*	*	*	*	*color:red	*	*	*	*	*	*	*
2f\	-tur	-ple	-am	-to	a-	Ie-	1f	-tur	-ple	-am	-to	a-	Ie-	2cc\	-tur	-ple	-am	-to	a-	Ie-	.	.	.	.	.	.	.	2F/	-tur	-ple	-am	-to	a-	Ie-	.	.	.	.	.	.	.	2a\	-tur	-ple	-am	-to	a-	Ie-	2ff\	-tur	-ple	-am	-to	a-	Ie-
*	*	*	*	*	*	*	*	*	*	*	*	*	*	*	*	*	*	*	*	*	*	*	*	*	*	*	*color:red	*	*	*	*	*	*	*	*	*	*	*	*	*	*color:red	*	*	*	*	*	*	*	*	*	*	*	*	*	*
2f\	do-	nos	glo-	no-	-li-	-sus	.	.	.	.	.	.	.	2b-\	do-	nos	glo-	no-	-li-	-sus	2dd\	-tur	-ple	-am	-to	a-	Ie-	2B-/	do-	nos	glo-	no-	-li-	-su	2f\	-tur	-ple	-am	-to	a-	Ie-	2b-\	do-	nos	glo-	no-	-li-	-sus	2dd\	do-	nos	glo-	no-	-li-	-sus
*	*	*	*	*	*	*color:auto	*	*	*	*	*	*	*	*	*	*	*	*	*	*color:auto	*	*	*	*	*	*	*	*	*	*	*	*	*	*color:auto	*	*	*	*	*	*	*	*	*	*	*	*	*	*color:auto	*	*	*	*	*	*	*
=17-	=17-	=17-	=17-	=17-	=17-	=17-	=17-	=17-	=17-	=17-	=17-	=17-	=17-	=17-	=17-	=17-	=17-	=17-	=17-	=17-	=17-	=17-	=17-	=17-	=17-	=17-	=17-	=17-	=17-	=17-	=17-	=17-	=17-	=17-	=17-	=17-	=17-	=17-	=17-	=17-	=17-	=17-	=17-	=17-	=17-	=17-	=17-	=17-	=17-	=17-	=17-	=17-	=17-	=17-	=17-
4g\	-na	tu-	-ri-	-bis	-ud	nos-	2d/	do-	nos	glo-	no-	-li-	-sus	1b-	-na	tu-	-ri-	-bis	-ud	nos-	1dd	do-	nos	glo-	no-	-li-	-sus	1G	-na	tu-	-ri-	-bis	-ud	nos-	1g	do-	nos	glo-	no-	-li-	-sus	1b-	-na	tu-	-ri-	-bis	-ud	nos-	1dd	-na	tu-	-ri-	-bis	-ud	nos-
4f\	.	.	.	.	.	.	.	.	.	.	.	.	.	.	.	.	.	.	.	.	.	.	.	.	.	.	.	.	.	.	.	.	.	.	.	.	.	.	.	.	.	.	.	.	.	.	.	.	.	.	.	.	.	.	.
*	*	*	*	*	*	*	*	*	*	*	*	*	*color:auto	*	*	*	*	*	*	*	*	*	*	*	*	*	*	*	*	*	*	*	*	*	*	*	*	*	*	*	*	*	*	*	*	*	*	*	*	*	*	*	*	*	*
4e\	.	.	.	.	.	.	2g\	-na	tu-	-ri-	-bis	-ud	nos-	.	.	.	.	.	.	.	.	.	.	.	.	.	.	.	.	.	.	.	.	.	.	.	.	.	.	.	.	.	.	.	.	.	.	.	.	.	.	.	.	.	.
4d\	.	.	.	.	.	.	.	.	.	.	.	.	.	.	.	.	.	.	.	.	.	.	.	.	.	.	.	.	.	.	.	.	.	.	.	.	.	.	.	.	.	.	.	.	.	.	.	.	.	.	.	.	.	.	.
*	*	*	*	*	*	*	*	*	*	*	*	*	*	*lig	*	*	*	*	*	*	*	*	*	*	*	*	*color:auto	*	*	*	*	*	*	*	*	*	*	*	*	*	*color:auto	*	*	*	*	*	*	*	*	*	*	*	*	*	*
1c	cae-	-a	-am	con-	pos-	-tra	1.g	cae-	-a	-am	con-	pos-	-tra	1cc	cae-	-a	-am	con-	pos-	-tra	1cc	-na	tu-	-ri-	-bis	-ud	nos-	4c/	cae-	-a	-am	con-	pos-	-tra	1g	-na	tu-	-ri-	-bis	-ud	nos-	0g	cae-	-a	-am	con-	pos-	-tra	4ee\	cae-	-a	-am	son-	pos-	-tra
.	.	.	.	.	.	.	.	.	.	.	.	.	.	.	.	.	.	.	.	.	.	.	.	.	.	.	.	4d\	.	.	.	.	.	.	.	.	.	.	.	.	.	.	.	.	.	.	.	.	4ff\	.	.	.	.	.	.
!	!	!	!	!	!	!	!	!	!	!	!	!	!	!	!	!	!	!	!	!	!	!	!	!	!	!	!	!	!	!	!	!	!	!	!	!	!	!	!	!	!	!	!	!	!	!	!	!	!LO:TX:t=P:problem:problem=dopasowane do całości harmonii	!	!	!	!	!	!
.	.	.	.	.	.	.	.	.	.	.	.	.	.	.	.	.	.	.	.	.	.	.	.	.	.	.	.	4e\	.	.	.	.	.	.	.	.	.	.	.	.	.	.	.	.	.	.	.	.	1gg\	-les-	gra-	so-	-so-	-tu-	a-
.	.	.	.	.	.	.	.	.	.	.	.	.	.	.	.	.	.	.	.	.	.	.	.	.	.	.	.	4f\	.	.	.	.	.	.	.	.	.	.	.	.	.	.	.	.	.	.	.	.	.	.	.	.	.	.	.
=18-	=18-	=18-	=18-	=18-	=18-	=18-	=18-	=18-	=18-	=18-	=18-	=18-	=18-	=18-	=18-	=18-	=18-	=18-	=18-	=18-	=18-	=18-	=18-	=18-	=18-	=18-	=18-	=18-	=18-	=18-	=18-	=18-	=18-	=18-	=18-	=18-	=18-	=18-	=18-	=18-	=18-	=18-	=18-	=18-	=18-	=18-	=18-	=18-	=18-	=18-	=18-	=18-	=18-	=18-	=18-
4G/	.	.	.	.	.	.	.	.	.	.	.	.	.	1a	.	.	.	.	.	.	1dd	cae-	-a	-am	con-	pos-	-tra	1g	.	.	.	.	.	.	1g	cae-	-a	-am	con-	pos-	-tra	.	.	.	.	.	.	.	.	.	.	.	.	.	.
4A/	.	.	.	.	.	.	.	.	.	.	.	.	.	.	.	.	.	.	.	.	.	.	.	.	.	.	.	.	.	.	.	.	.	.	.	.	.	.	.	.	.	.	.	.	.	.	.	.	.	.	.	.	.	.	.
!	!	!	!	!	!	!	!	!	!	!	!	!	!	!	!	!	!	!	!	!	!	!	!	!	!	!	!	!	!	!	!	!	!	!	!	!	!	!	!	!	!	!	!	!	!	!	!	!	!LO:TX:t=P:problem=pominięty fragment	!	!	!	!	!	!
4B-/	.	.	.	.	.	.	2d/	-les-	gra-	ſo-	-so-	-tu-	a-	.	.	.	.	.	.	.	.	.	.	.	.	.	.	.	.	.	.	.	.	.	.	.	.	.	.	.	.	.	.	.	.	.	.	.	2ryy	.	.	.	.	.	.
4c\	.	.	.	.	.	.	.	.	.	.	.	.	.	.	.	.	.	.	.	.	.	.	.	.	.	.	.	.	.	.	.	.	.	.	.	.	.	.	.	.	.	.	.	.	.	.	.	.	.	.	.	.	.	.	.
*	*	*	*	*	*	*	*	*	*	*	*	*	*	*Xlig	*	*	*	*	*	*	*	*	*	*	*	*	*	*	*	*	*	*	*	*	*	*	*	*	*	*	*	*	*	*	*	*	*	*	*	*	*	*	*	*	*
!	!	!	!	!	!	!	!	!	!	!	!	!	!	!	!	!	!	!	!	!	!	!	!	!	!	!	!	!	!	!	!	!	!	!	!	!	!	!	!	!	!	!	!	!	!	!	!	!	!LO:TX:t=P:problem=pominięty fragment	!	!	!	!	!	!
1.d	-les-	gra-	ſo-	-so-	-tu-	a-	0d	-ti-	-ti-	-ne-	-la-	-la-	-ni-	1.a	-les-	gra-	ſo-	-so-	-tu-	a-	1.dd	-les-	gra-	ſo-	-so-	-tu-	a-	1.d	-les-	gra-	ſo-	-so-	-tu-	a-	1.a	-les-	gra-	ſo-	-so-	-tu-	a-	1.a	-les-	gra-	ſo-	-so-	-tu-	a-	1ryy	.	.	.	.	.	.
=19-	=19-	=19-	=19-	=19-	=19-	=19-	=19-	=19-	=19-	=19-	=19-	=19-	=19-	=19-	=19-	=19-	=19-	=19-	=19-	=19-	=19-	=19-	=19-	=19-	=19-	=19-	=19-	=19-	=19-	=19-	=19-	=19-	=19-	=19-	=19-	=19-	=19-	=19-	=19-	=19-	=19-	=19-	=19-	=19-	=19-	=19-	=19-	=19-	=19-	=19-	=19-	=19-	=19-	=19-	=19-
.	.	.	.	.	.	.	.	.	.	.	.	.	.	.	.	.	.	.	.	.	.	.	.	.	.	.	.	.	.	.	.	.	.	.	.	.	.	.	.	.	.	.	.	.	.	.	.	.	4ff\	.	.	.	.	.	.
.	.	.	.	.	.	.	.	.	.	.	.	.	.	.	.	.	.	.	.	.	.	.	.	.	.	.	.	.	.	.	.	.	.	.	.	.	.	.	.	.	.	.	.	.	.	.	.	.	4ee\	.	.	.	.	.	.
2d\	-ti-	-ti-	-ne-	-la-	-la-	-ni-	.	.	.	.	.	.	.	2dd\	-ti-	-ti-	-ne-	-la-	-la-	-ni-	2dd\	-ti-	-ti-	-ne-	-la-	-la-	-ni-	2d\	-ti-	-ti-	-ne-	-la-	-la-	-ni-	2a\	-ti-	-ti-	-ne-	-la-	-la-	-ni-	2a\	-ti-	-ti-	-ne-	-la-	-la-	-ni-	2ff\	-ti-	-ti-	-ne-	-la-	-la-	-ni-
!	!	!	!	!	!	!	!LO:TX:a:t=P:problem=w źródle ostatnia nuta ozdobnie zwielokrotniona	!	!	!	!	!	!	!	!	!	!	!	!	!	!	!	!	!	!	!	!	!	!	!	!	!	!	!	!	!	!	!	!	!	!	!	!	!	!	!	!	!	!	!	!	!	!	!	!
!	!	!	!	!	!	!	!	!	!	!	!	!	!	!LO:TX:a:t=P:problem=w źródle ozdobna kreska końcowa lub podpis skryptora	!	!	!	!	!	!	!LO:TX:a:t=P:problem=w źródle ozdobna kreska końcowa lub podpis skryptora	!	!	!	!	!	!	!	!	!	!	!	!	!	!	!	!	!	!	!	!	!	!	!	!	!	!	!	!	!	!	!	!	!	!
!	!	!	!	!	!	!	!	!	!	!	!	!	!	!LO:TX:a:t=P:problem=w źródle krzyżyk w roli kasownika	!	!	!	!	!	!	!	!	!	!	!	!	!	!	!	!	!	!	!	!	!	!	!	!	!	!	!	!LO:TX:a:t=P:problem=w źródle krzyżyk w roli kasownika	!	!	!	!	!	!	!	!	!	!	!	!	!
!	!	!	!	!	!	!	!	!	!	!	!	!	!	!LO:N:acc=#	!	!	!	!	!	!	!	!	!	!	!	!	!	!	!	!	!	!	!	!	!	!	!	!	!	!	!	!LO:N:acc=#	!	!	!	!	!	!	!	!	!	!	!	!	!
0gl;;	-a	-a	-mur.	-tor.	-mur,	-ma	0dl;>	-a	-a	-mur.	-tor.	-mur,	-ma	0bnl;>	-a	-a	-mur.	-tor.	-mur,	-ma	0ddl;>	-a	-a	-mur.	-tor.	-mur,	-ma	0Gl;>	-a	-a	-mur.	-tor.	-mur,	-ma	0gl;>	-a	-a	-mur.	-tor.	-mur	-ma	0bnl;>	-a	-a	-mur.	-tor.	-mur,	-ma	0gg	-a	-a	-mur	-tor	-mur	-ma
*	*	*	*	*	*	*	*	*	*	*	*	*	*	*	*	*	*	*	*	*	*	*	*	*	*	*	*	*	*	*	*	*	*	*	*	*	*	*	*	*	*	*	*	*	*	*	*	*	*	*	*Xij	*Xij	*Xij	*Xij	*Xij
==	==	==	==	==	==	==	==	==	==	==	==	==	==	==	==	==	==	==	==	==	==	==	==	==	==	==	==	==	==	==	==	==	==	==	==	==	==	==	==	==	==	==	==	==	==	==	==	==	==	==	==	==	==	==	==
*-	*-	*-	*-	*-	*-	*-	*-	*-	*-	*-	*-	*-	*-	*-	*-	*-	*-	*-	*-	*-	*-	*-	*-	*-	*-	*-	*-	*-	*-	*-	*-	*-	*-	*-	*-	*-	*-	*-	*-	*-	*-	*-	*-	*-	*-	*-	*-	*-	*-	*-	*-	*-	*-	*-	*-
!!!system-decoration: [(s1,s2,s3,s4)][(s5,s6,s7,s8)]
!!!RDF**kern: > = above
!!!RDF**kern: < = below
!!!RDF**kern: | = vertical stroke
!!!RDF**kern: N = linked
!!!RDF**kern: i = editorial accidental
!!!RDF**kern: l = terminal long
!!!ENC: Andrzej Gręziak
!!!END: 2021-10-29
!!!EED: Wojciech Jakubiak-Danek
!!!EEV: 2021-11-04
